img/macos.svg

<svg fill="none" height="64" viewBox="0 0 209 64" width="209" xmlns="http://www.w3.org/2000/svg"><g fill="#fff"><path d="m4.65625 55v-32.875h6.81255v5.0938h.125c.7083-1.7292 1.8645-3.1146 3.4687-4.1563s3.4792-1.5625 5.625-1.5625c1.5 0 2.8542.25 4.0625.75 1.2292.5 2.2812 1.2396 3.1562 2.2188.875.9583 1.5209 2.125 1.9376 3.5h.1562c.5625-1.3334 1.3438-2.4792 2.3438-3.4376 1.0208-.9791 2.1979-1.7291 3.5312-2.25 1.3542-.5208 2.8125-.7812 4.375-.7812 2.1667 0 4.0521.4583 5.6562 1.375 1.6042.8958 2.8542 2.1562 3.75 3.7812.8959 1.625 1.3438 3.5313 1.3438 5.7188v22.625h-6.8125v-20.9688c0-1.4374-.25-2.6562-.75-3.6562-.4792-1-1.1875-1.7604-2.125-2.2812-.9167-.5209-2.0521-.7813-3.4063-.7813-1.3333 0-2.5104.3021-3.5312.9063-1 .6041-1.7917 1.4479-2.375 2.5312-.5625 1.0833-.8438 2.3125-.8438 3.6875v20.5625h-6.6562v-21.4688c0-1.2708-.2604-2.3645-.7812-3.2812-.5-.9375-1.2084-1.6562-2.125-2.1562-.9167-.5209-2.0209-.7813-3.3126-.7813-1.3124 0-2.4895.3229-3.5312.9687-1.0208.625-1.8229 1.4896-2.4062 2.5938-.5834 1.1042-.875 2.375-.875 3.8125v20.3125z"/><path d="m67.1562 55.5938c-2.1874 0-4.1041-.4167-5.75-1.25-1.6458-.8334-2.927-2-3.8437-3.5s-1.375-3.2292-1.375-5.1876v-.0624c0-1.9167.4792-3.5626 1.4375-4.9376.9583-1.3958 2.3438-2.5 4.1562-3.3124 1.8334-.8126 4.0417-1.2917 6.625-1.4376l12.4376-.75v4.75l-11.5313.7188c-2.0208.125-3.5833.6146-4.6875 1.4688-1.0833.8333-1.625 1.9479-1.625 3.3437v.0625c0 1.4375.5417 2.5729 1.625 3.4062 1.1042.8334 2.5625 1.25 4.375 1.25 1.5833 0 3-.3229 4.25-.9687 1.2708-.6458 2.2708-1.5313 3-2.6563.7292-1.1458 1.0938-2.427 1.0938-3.8437v-9.7813c0-1.8124-.5626-3.2291-1.6876-4.25-1.125-1.0416-2.7395-1.5624-4.8437-1.5624-1.9375 0-3.5.4166-4.6875 1.25-1.1667.8333-1.8958 1.9062-2.1875 3.2187l-.0625.2813h-6.375l.0312-.3438c.1667-1.8958.8021-3.5938 1.9063-5.0938 1.1042-1.5208 2.6354-2.7187 4.5937-3.5937 1.9584-.875 4.2813-1.3125 6.9688-1.3125s5.0104.4479 6.9688 1.3438c1.9583.8958 3.4791 2.1562 4.5624 3.7812 1.0834 1.625 1.625 3.5312 1.625 5.7188v22.6562h-6.8124v-5.1875h-.125c-.6459 1.1875-1.4792 2.2187-2.5 3.0937-1.0209.8542-2.1771 1.5209-3.4688 2-1.2708.4584-2.6354.6876-4.0938.6876z"/><path d="m104.812 55.6562c-3.187 0-5.9578-.6979-8.312-2.0937-2.3333-1.3958-4.1354-3.375-5.4062-5.9375-1.25-2.5625-1.875-5.5938-1.875-9.0938v-.0312c0-3.4792.6354-6.4896 1.9062-9.0312 1.2917-2.5417 3.1042-4.5 5.4375-5.875 2.3333-1.3959 5.0625-2.0938 8.1875-2.0938 2.812 0 5.24.5417 7.281 1.625 2.063 1.0625 3.677 2.4792 4.844 4.25s1.844 3.6875 2.031 5.75l.032.25h-6.469l-.063-.2812c-.354-1.6042-1.166-2.9896-2.437-4.1563-1.25-1.1875-2.979-1.7813-5.188-1.7813-1.729 0-3.25.4688-4.562 1.4063-1.2919.9167-2.3023 2.2292-3.0315 3.9375-.7083 1.7083-1.0625 3.7292-1.0625 6.0625v.0313c0 2.3958.3646 4.4479 1.0938 6.1562.7291 1.6875 1.7395 2.9792 3.0312 3.875 1.312.8958 2.844 1.3438 4.594 1.3438 2.083 0 3.76-.5417 5.031-1.625 1.292-1.1042 2.146-2.5417 2.563-4.3126l.031-.25h6.5v.2188c-.25 2.1875-1 4.1667-2.25 5.9375-1.229 1.75-2.865 3.1458-4.907 4.1875-2.02 1.0208-4.354 1.5312-7 1.5312z"/><path d="m144.156 55.75c-4.354 0-8.114-.9375-11.281-2.8125-3.167-1.8958-5.604-4.5833-7.313-8.0625-1.708-3.5-2.562-7.6354-2.562-12.4062v-.0626c0-4.7708.854-8.8958 2.562-12.375 1.73-3.4791 4.178-6.1562 7.344-8.0312 3.167-1.8958 6.917-2.84375 11.25-2.84375 4.313 0 8.052.94795 11.219 2.84375s5.604 4.5833 7.313 8.0625c1.708 3.4583 2.562 7.5729 2.562 12.3437v.0626c0 4.7708-.854 8.8958-2.562 12.375-1.709 3.4791-4.146 6.1666-7.313 8.0624-3.146 1.8959-6.885 2.8438-11.219 2.8438zm0-6.2188c2.875 0 5.354-.6979 7.438-2.0937 2.083-1.3958 3.687-3.375 4.812-5.9375s1.688-5.5729 1.688-9.0312v-.0626c0-3.4791-.573-6.4895-1.719-9.0312-1.125-2.5625-2.74-4.5312-4.844-5.9062-2.083-1.3959-4.541-2.0938-7.375-2.0938-2.854 0-5.333.6875-7.437 2.0625-2.084 1.375-3.698 3.3437-4.844 5.9063-1.146 2.5416-1.719 5.5624-1.719 9.0624v.0626c0 3.4791.573 6.5 1.719 9.0624 1.146 2.5626 2.76 4.5417 4.844 5.9376 2.083 1.375 4.562 2.0624 7.437 2.0624z"/><path d="m187.312 55.75c-3.374 0-6.333-.5104-8.874-1.5312-2.521-1.0209-4.521-2.4792-6-4.375-1.48-1.9167-2.313-4.198-2.5-6.8438l-.032-.4688h6.844l.062.4063c.209 1.375.782 2.5729 1.719 3.5937.959 1 2.209 1.7709 3.75 2.3126 1.542.5416 3.313.8124 5.313.8124 2.021 0 3.76-.2812 5.218-.8437 1.459-.5625 2.584-1.3646 3.376-2.4063.812-1.0416 1.218-2.2604 1.218-3.6562v-.0312c0-1.8126-.656-3.25-1.968-4.3126-1.292-1.0833-3.438-1.9479-6.438-2.5937l-4.906-1.0313c-4.417-.9374-7.709-2.4374-9.875-4.5-2.167-2.0833-3.25-4.7916-3.25-8.125v-.0312c.021-2.5625.729-4.8125 2.125-6.75 1.396-1.9583 3.323-3.4792 5.781-4.5625 2.458-1.10417 5.281-1.65625 8.469-1.65625 3.125 0 5.885.53125 8.281 1.59375s4.292 2.5521 5.687 4.4688c1.396 1.8958 2.178 4.1145 2.344 6.6562l.032.5h-6.844l-.063-.4062c-.187-1.4167-.708-2.625-1.562-3.625-.834-1-1.927-1.7605-3.281-2.2813-1.355-.5417-2.928-.8125-4.719-.8125-1.854 0-3.469.2812-4.844.8438-1.375.5416-2.437 1.302-3.187 2.2812s-1.126 2.1354-1.126 3.4688v.0312c0 1.6875.667 3.0625 2 4.125 1.334 1.0625 3.407 1.8958 6.219 2.5l4.907 1.0625c3.104.6458 5.635 1.5208 7.593 2.625 1.959 1.1042 3.407 2.4792 4.344 4.125s1.406 3.6354 1.406 5.9687v.0313c0 2.75-.698 5.1354-2.093 7.1563-1.376 2-3.355 3.552-5.938 4.6562-2.562 1.0833-5.625 1.625-9.188 1.625z"/></g></svg>

<svg width="209" height="64" viewBox="0 0 209 64" fill="none" xmlns="http://www.w3.org/2000/svg">
<path d="M4.65625 55V22.125H11.4688V27.2188H11.5938C12.3021 25.4896 13.4583 24.1042 15.0625 23.0625C16.6667 22.0208 18.5417 21.5 20.6875 21.5C22.1875 21.5 23.5417 21.75 24.75 22.25C25.9792 22.75 27.0312 23.4896 27.9062 24.4688C28.7812 25.4271 29.4271 26.5938 29.8438 27.9688H30C30.5625 26.6354 31.3438 25.4896 32.3438 24.5312C33.3646 23.5521 34.5417 22.8021 35.875 22.2812C37.2292 21.7604 38.6875 21.5 40.25 21.5C42.4167 21.5 44.3021 21.9583 45.9062 22.875C47.5104 23.7708 48.7604 25.0312 49.6562 26.6562C50.5521 28.2812 51 30.1875 51 32.375V55H44.1875V34.0312C44.1875 32.5938 43.9375 31.375 43.4375 30.375C42.9583 29.375 42.25 28.6146 41.3125 28.0938C40.3958 27.5729 39.2604 27.3125 37.9062 27.3125C36.5729 27.3125 35.3958 27.6146 34.375 28.2188C33.375 28.8229 32.5833 29.6667 32 30.75C31.4375 31.8333 31.1562 33.0625 31.1562 34.4375V55H24.5V33.5312C24.5 32.2604 24.2396 31.1667 23.7188 30.25C23.2188 29.3125 22.5104 28.5938 21.5938 28.0938C20.6771 27.5729 19.5729 27.3125 18.2812 27.3125C16.9688 27.3125 15.7917 27.6354 14.75 28.2812C13.7292 28.9062 12.9271 29.7708 12.3438 30.875C11.7604 31.9792 11.4688 33.25 11.4688 34.6875V55H4.65625Z" fill="white" style="fill:white;fill-opacity:1;"/>
<path d="M67.1562 55.5938C64.9688 55.5938 63.0521 55.1771 61.4062 54.3438C59.7604 53.5104 58.4792 52.3438 57.5625 50.8438C56.6458 49.3438 56.1875 47.6146 56.1875 45.6562V45.5938C56.1875 43.6771 56.6667 42.0312 57.625 40.6562C58.5833 39.2604 59.9688 38.1562 61.7812 37.3438C63.6146 36.5312 65.8229 36.0521 68.4062 35.9062L80.8438 35.1562V39.9062L69.3125 40.625C67.2917 40.75 65.7292 41.2396 64.625 42.0938C63.5417 42.9271 63 44.0417 63 45.4375V45.5C63 46.9375 63.5417 48.0729 64.625 48.9062C65.7292 49.7396 67.1875 50.1562 69 50.1562C70.5833 50.1562 72 49.8333 73.25 49.1875C74.5208 48.5417 75.5208 47.6562 76.25 46.5312C76.9792 45.3854 77.3438 44.1042 77.3438 42.6875V32.9062C77.3438 31.0938 76.7812 29.6771 75.6562 28.6562C74.5312 27.6146 72.9167 27.0938 70.8125 27.0938C68.875 27.0938 67.3125 27.5104 66.125 28.3438C64.9583 29.1771 64.2292 30.25 63.9375 31.5625L63.875 31.8438H57.5L57.5312 31.5C57.6979 29.6042 58.3333 27.9062 59.4375 26.4062C60.5417 24.8854 62.0729 23.6875 64.0312 22.8125C65.9896 21.9375 68.3125 21.5 71 21.5C73.6875 21.5 76.0104 21.9479 77.9688 22.8438C79.9271 23.7396 81.4479 25 82.5312 26.625C83.6146 28.25 84.1562 30.1562 84.1562 32.3438V55H77.3438V49.8125H77.2188C76.5729 51 75.7396 52.0312 74.7188 52.9062C73.6979 53.7604 72.5417 54.4271 71.25 54.9062C69.9792 55.3646 68.6146 55.5938 67.1562 55.5938Z" fill="white" style="fill:white;fill-opacity:1;"/>
<path d="M104.812 55.6562C101.625 55.6562 98.8542 54.9583 96.5 53.5625C94.1667 52.1667 92.3646 50.1875 91.0938 47.625C89.8438 45.0625 89.2188 42.0312 89.2188 38.5312V38.5C89.2188 35.0208 89.8542 32.0104 91.125 29.4688C92.4167 26.9271 94.2292 24.9688 96.5625 23.5938C98.8958 22.1979 101.625 21.5 104.75 21.5C107.562 21.5 109.99 22.0417 112.031 23.125C114.094 24.1875 115.708 25.6042 116.875 27.375C118.042 29.1458 118.719 31.0625 118.906 33.125L118.938 33.375H112.469L112.406 33.0938C112.052 31.4896 111.24 30.1042 109.969 28.9375C108.719 27.75 106.99 27.1562 104.781 27.1562C103.052 27.1562 101.531 27.625 100.219 28.5625C98.9271 29.4792 97.9167 30.7917 97.1875 32.5C96.4792 34.2083 96.125 36.2292 96.125 38.5625V38.5938C96.125 40.9896 96.4896 43.0417 97.2188 44.75C97.9479 46.4375 98.9583 47.7292 100.25 48.625C101.562 49.5208 103.094 49.9688 104.844 49.9688C106.927 49.9688 108.604 49.4271 109.875 48.3438C111.167 47.2396 112.021 45.8021 112.438 44.0312L112.469 43.7812H118.969V44C118.719 46.1875 117.969 48.1667 116.719 49.9375C115.49 51.6875 113.854 53.0833 111.812 54.125C109.792 55.1458 107.458 55.6562 104.812 55.6562Z" fill="white" style="fill:white;fill-opacity:1;"/>
<path d="M144.156 55.75C139.802 55.75 136.042 54.8125 132.875 52.9375C129.708 51.0417 127.271 48.3542 125.562 44.875C123.854 41.375 123 37.2396 123 32.4688V32.4062C123 27.6354 123.854 23.5104 125.562 20.0312C127.292 16.5521 129.74 13.875 132.906 12C136.073 10.1042 139.823 9.15625 144.156 9.15625C148.469 9.15625 152.208 10.1042 155.375 12C158.542 13.8958 160.979 16.5833 162.688 20.0625C164.396 23.5208 165.25 27.6354 165.25 32.4062V32.4688C165.25 37.2396 164.396 41.3646 162.688 44.8438C160.979 48.3229 158.542 51.0104 155.375 52.9062C152.229 54.8021 148.49 55.75 144.156 55.75ZM144.156 49.5312C147.031 49.5312 149.51 48.8333 151.594 47.4375C153.677 46.0417 155.281 44.0625 156.406 41.5C157.531 38.9375 158.094 35.9271 158.094 32.4688V32.4062C158.094 28.9271 157.521 25.9167 156.375 23.375C155.25 20.8125 153.635 18.8438 151.531 17.4688C149.448 16.0729 146.99 15.375 144.156 15.375C141.302 15.375 138.823 16.0625 136.719 17.4375C134.635 18.8125 133.021 20.7812 131.875 23.3438C130.729 25.8854 130.156 28.9062 130.156 32.4062V32.4688C130.156 35.9479 130.729 38.9688 131.875 41.5312C133.021 44.0938 134.635 46.0729 136.719 47.4688C138.802 48.8438 141.281 49.5312 144.156 49.5312Z" fill="white" style="fill:white;fill-opacity:1;"/>
<path d="M187.312 55.75C183.938 55.75 180.979 55.2396 178.438 54.2188C175.917 53.1979 173.917 51.7396 172.438 49.8438C170.958 47.9271 170.125 45.6458 169.938 43L169.906 42.5312H176.75L176.812 42.9375C177.021 44.3125 177.594 45.5104 178.531 46.5312C179.49 47.5312 180.74 48.3021 182.281 48.8438C183.823 49.3854 185.594 49.6562 187.594 49.6562C189.615 49.6562 191.354 49.375 192.812 48.8125C194.271 48.25 195.396 47.4479 196.188 46.4062C197 45.3646 197.406 44.1458 197.406 42.75V42.7188C197.406 40.9062 196.75 39.4688 195.438 38.4062C194.146 37.3229 192 36.4583 189 35.8125L184.094 34.7812C179.677 33.8438 176.385 32.3438 174.219 30.2812C172.052 28.1979 170.969 25.4896 170.969 22.1562V22.125C170.99 19.5625 171.698 17.3125 173.094 15.375C174.49 13.4167 176.417 11.8958 178.875 10.8125C181.333 9.70833 184.156 9.15625 187.344 9.15625C190.469 9.15625 193.229 9.6875 195.625 10.75C198.021 11.8125 199.917 13.3021 201.312 15.2188C202.708 17.1146 203.49 19.3333 203.656 21.875L203.688 22.375H196.844L196.781 21.9688C196.594 20.5521 196.073 19.3438 195.219 18.3438C194.385 17.3438 193.292 16.5833 191.938 16.0625C190.583 15.5208 189.01 15.25 187.219 15.25C185.365 15.25 183.75 15.5312 182.375 16.0938C181 16.6354 179.938 17.3958 179.188 18.375C178.438 19.3542 178.062 20.5104 178.062 21.8438V21.875C178.062 23.5625 178.729 24.9375 180.062 26C181.396 27.0625 183.469 27.8958 186.281 28.5L191.188 29.5625C194.292 30.2083 196.823 31.0833 198.781 32.1875C200.74 33.2917 202.188 34.6667 203.125 36.3125C204.062 37.9583 204.531 39.9479 204.531 42.2812V42.3125C204.531 45.0625 203.833 47.4479 202.438 49.4688C201.062 51.4688 199.083 53.0208 196.5 54.125C193.938 55.2083 190.875 55.75 187.312 55.75Z" fill="white" style="fill:white;fill-opacity:1;"/>
</svg>
